X: 38127
T: Sporting Boys Of Scotstown, The
R: reel
M: 4/4
K: Amajor
|:cd|eafa ecAc|eafa e2cd|eafa ecAc|BGEG B2:|
ed|cAA/A/A EAAA|cAAc e2ed|cAA/A/A EAcA|BAGA B2ed|
cAA/A/A EAAB|cBc/c/d e2ed|ceag|fedc|BAGA B2||

